X:1
T:Title
%%score { ( 1 4 ) | ( 2 3 ) }
L:1/8
Q:1/4=168
M:6/4
K:Db
V:1 treble nm="Grand Piano"
V:4 treble 
V:2 bass 
V:3 bass 
V:1
 [Fd]2 [Fc]2 [B,FB]2 [DFA]2 [A,EG]2 [A,DF]2 | [CGA]4 [CGA]2 [CGA]6 | %2
w: Charles~Gabriel,~Jr. * * * * *||
 [EGc]2 [CGB]2 [DFA]2 [A,EG]2 [A,DF]2 [A,CE]2 | [A,DA]4 [CGA]2 [DFA]6 | %4
w: ||
 [Fd]2 [Fc]2 [FB]2 [FA]2 [EG]2 [DF]2 | [FA]4 [FA]2 A6 | c2 d2 c2 [=GB]2 [_G=A]2 [D=GB]2 | %7
w: |||
[M:13/8] e-e-e-e-e-e-e-e-e-e- e2- e/ z/ |[M:6/4] [Fd]2 [Fc]2 [FB]2 [Fd]2 [Fc]2 [FB]2 | %9
w: ||
 [Gd]4 [Gc]2 [Gc]6 | [Gd]2 [Gc]2 [GB]2 .[EGd]4 [CGB]2 | [FB]4 [FA]2 [FA]6 | %12
w: |||
 [Af]2 [Ge]2 [Fd]2 [Af]2 [Ae]2 [Ad]2 |[M:15/8] d3- d d2 d3- d6 |[M:6/4] d2 A4 c2 A3 e | d12 |] %16
w: ||||
V:2
 [D,A,]2 [D,A,]2 D,2 D,2 D,2 D,2 | E,4 A,,2 E,6 | A,,2 A,,2 A,,2 A,,2 A,,2 G,2 | F,4 E,2 D,6 | %4
 [D,A,]2 [D,A,]2 [D,B,]2 [D,D]2 [D,A,]2 [D,A,]2 | [=D,_C]4 [D,C]2 [E,=CE]6 | %6
 [E,A,E]2 [E,B,E]2 [E,A,E]2 D2 C2 E,2 |[M:13/8] z2 E2 A,,2 A,2 B,2 A,3 | %8
[M:6/4] [D,A,]2 [D,A,]2 [D,D]2 [D,A,]2 [D,A,]2 [D,D]2 | [E,A,]4 [A,,A,]2 [A,E]6 | %10
 z6 .A,6[K:treble][K:bass] | [D,D]4 [D,D]2 [D,D]6 | [D,D]2 [D,D]2 [D,A,]2 [D,D]2 [E,C]2 [F,_C]2 | %13
[M:15/8][K:treble] [G,B,G]3- [G,B,G] [G,B,G]2 [=G,B,_F]3- [G,B,F]6 | %14
[M:6/4] [A,F]2 [A,DF]4 [A,EG]2 [A,CG]4 | [D,A,] [D,A,]3 [D,B,]2 [D,A,]6 |] %16
V:3
 x12 | x12 | x12 | x12 | x12 | x12 | z6 .E,6 |[M:13/8] A,,- A,,3 z z z z z z z z2 |[M:6/4] x12 | %9
 x12 | [E,A,]2 [E,A,]2 [E,A,]2 z2[K:treble] c2[K:bass] A,,2 | x12 | x12 |[M:15/8][K:treble] x15 | %14
[M:6/4] x12 | x12 |] %16
V:4
 x12 | x12 | x12 | x12 | x12 | x12 | x12 |[M:13/8] [CA]2 c2 [DB]2 [CA]2 [D=G]2 [C_G]3 | %8
[M:6/4] x12 | x12 | x12 | x12 | x12 |[M:15/8] x15 |[M:6/4] x12 | F F3 G2 F6 |] %16

